X: 39581
T: Teelin Petronella, The
R: barndance
M: 4/4
K: Dmajor
D>E|:F2 A2 E2 A2|D2 E>F D2 F>A|(3ded c>d e2 d>e|f2 d2 A2 G2|
F2 A2 E2 A2|D2 E>F D2 F>A|(3ded c>d e2 d>e|1 f2 d2 d>BA>G:|2 f2 d2 d>A||
|:F>G|A2 f2 A2 f2|A2 f2 f>ed>c|B2 g2 B2 c>d|e>dc>B A>GF>G|
A2 f2 A2 f2|A2 f2 f>ed>c|B2 g2 B2 c>d|e>dc>e d2:|

